X: 11
T:Cuckoo's Nest
% Nottingham Music Database
S:Song
M:4/4
L:1/8
R:Hornpipe
K:Dm
"Dm"D2DE DCA,C|"Dm"DCDE F2"C7"FA|"F"c2cd A2GF|"C"ECCC C2"A7"FE|
"Dm"D2DE DCA,C|"Dm"DCDE F2"C7"FG|"F"ABcA "A7"GFEF|"Dm"E2"Gm"D2 "Dm"D2||<end>
<start>
